icons/mimetypes/64/application-vnd.ms-excel.addin.macroenabled.12.svg

<?xml version="1.0" encoding="UTF-8" standalone="no"?>
<svg
   xmlns:dc="http://purl.org/dc/elements/1.1/"
   xmlns:cc="http://creativecommons.org/ns#"
   xmlns:rdf="http://www.w3.org/1999/02/22-rdf-syntax-ns#"
   xmlns:svg="http://www.w3.org/2000/svg"
   xmlns="http://www.w3.org/2000/svg"
   xmlns:xlink="http://www.w3.org/1999/xlink"
   xmlns:sodipodi="http://sodipodi.sourceforge.net/DTD/sodipodi-0.dtd"
   xmlns:inkscape="http://www.inkscape.org/namespaces/inkscape"
   width="64"
   version="1.1"
   viewBox="0 0 64 64"
   height="64"
   id="svg2"
   inkscape:version="0.91 r13725"
   sodipodi:docname="application-vnd.ms-excel.addin.macroenabled.12.svg">
  <sodipodi:namedview
     pagecolor="#ffffff"
     bordercolor="#666666"
     borderopacity="1"
     objecttolerance="10"
     gridtolerance="10"
     guidetolerance="10"
     inkscape:pageopacity="0"
     inkscape:pageshadow="2"
     inkscape:window-width="1360"
     inkscape:window-height="708"
     id="namedview24"
     showgrid="false"
     inkscape:zoom="1"
     inkscape:cx="29.18332"
     inkscape:cy="34.19159"
     inkscape:window-x="0"
     inkscape:window-y="0"
     inkscape:window-maximized="1"
     inkscape:current-layer="svg2"
     inkscape:object-nodes="true">
    <inkscape:grid
       type="xygrid"
       id="grid4158" />
  </sodipodi:namedview>
  <defs
     id="defs4">
    <linearGradient
       inkscape:collect="always"
       id="linearGradient4300">
      <stop
         style="stop-color:#26c281"
         id="stop4302" />
      <stop
         offset="1"
         style="stop-color:#3fc380"
         id="stop4304" />
    </linearGradient>
    <linearGradient
       inkscape:collect="always"
       xlink:href="#linearGradient6251"
       id="linearGradient7145"
       gradientUnits="userSpaceOnUse"
       gradientTransform="translate(-47.999999,-332.36218)"
       x1="58"
       y1="392.36221"
       x2="58"
       y2="336.36221" />
    <linearGradient
       inkscape:collect="always"
       id="linearGradient6251">
      <stop
         style="stop-color:#ffffff;stop-opacity:0"
         offset="0"
         id="stop6253" />
      <stop
         style="stop-color:#ffffff;stop-opacity:0.2"
         offset="1"
         id="stop6255" />
    </linearGradient>
    <linearGradient
       inkscape:collect="always"
       xlink:href="#linearGradient9654"
       id="linearGradient9932"
       gradientUnits="userSpaceOnUse"
       gradientTransform="translate(10e-7,2.5853277e-5)"
       x1="40"
       y1="17"
       x2="54"
       y2="31" />
    <linearGradient
       inkscape:collect="always"
       id="linearGradient9654">
      <stop
         style="stop-color:#060606;stop-opacity:1"
         offset="0"
         id="stop9656" />
      <stop
         style="stop-color:#000000;stop-opacity:0"
         offset="1"
         id="stop9658" />
    </linearGradient>
    <linearGradient
       inkscape:collect="always"
       xlink:href="#linearGradient4300"
       id="linearGradient4306-5-3"
       y1="61"
       y2="3"
       x2="0"
       gradientUnits="userSpaceOnUse"
       gradientTransform="matrix(1,0,0,-1,-10,61)" />
  </defs>
  <metadata
     id="metadata84">
    <rdf:RDF>
      <cc:Work
         rdf:about="">
        <dc:format>image/svg+xml</dc:format>
        <dc:type
           rdf:resource="http://purl.org/dc/dcmitype/StillImage" />
      </cc:Work>
    </rdf:RDF>
  </metadata>
  <path
     inkscape:export-ydpi="96"
     inkscape:export-xdpi="96"
     d="m 10.000002,61.000025 0,-57.9999991 30,0 L 54,17.000026 l 0,30 0,13.999999 -13.999998,0 -30,0 z"
     id="path6553"
     style="color:#000000;clip-rule:nonzero;display:inline;overflow:visible;visibility:visible;opacity:1;isolation:auto;mix-blend-mode:normal;color-interpolation:sRGB;color-interpolation-filters:linearRGB;solid-color:#000000;solid-opacity:1;fill:#25bb70;fill-opacity:1;fill-rule:nonzero;stroke-width:1;stroke-linecap:butt;stroke-linejoin:miter;stroke-miterlimit:4;stroke-dasharray:none;stroke-dashoffset:0;stroke-opacity:1;color-rendering:auto;image-rendering:auto;shape-rendering:auto;text-rendering:auto;enable-background:accumulate"
     inkscape:connector-curvature="0" />
  <rect
     inkscape:export-ydpi="96"
     inkscape:export-xdpi="96"
     transform="scale(1,-1)"
     id="rect6555"
     style="color:#000000;clip-rule:nonzero;display:inline;overflow:visible;visibility:visible;opacity:0.5;isolation:auto;mix-blend-mode:normal;color-interpolation:sRGB;color-interpolation-filters:linearRGB;solid-color:#000000;solid-opacity:1;fill:#ffffff;fill-opacity:1;fill-rule:nonzero;stroke-width:1;stroke-linecap:butt;stroke-linejoin:miter;stroke-miterlimit:4;stroke-dasharray:none;stroke-dashoffset:0;stroke-opacity:1;color-rendering:auto;image-rendering:auto;shape-rendering:auto;text-rendering:auto;enable-background:accumulate"
     height="1"
     y="-3.9999979"
     x="10"
     width="30" />
  <rect
     inkscape:export-ydpi="96"
     inkscape:export-xdpi="96"
     transform="scale(1,-1)"
     id="rect6557"
     style="color:#000000;clip-rule:nonzero;display:inline;overflow:visible;visibility:visible;opacity:0.25;isolation:auto;mix-blend-mode:normal;color-interpolation:sRGB;color-interpolation-filters:linearRGB;solid-color:#000000;solid-opacity:1;fill:#000000;fill-opacity:1;fill-rule:nonzero;stroke-width:1;stroke-linecap:butt;stroke-linejoin:miter;stroke-miterlimit:4;stroke-dasharray:none;stroke-dashoffset:0;stroke-opacity:1;color-rendering:auto;image-rendering:auto;shape-rendering:auto;text-rendering:auto;enable-background:accumulate"
     height="1"
     y="-61"
     x="10"
     width="44" />
  <path
     inkscape:export-ydpi="96"
     inkscape:export-xdpi="96"
     d="M 54,17.000026 40.000002,3.0000259 l 0,14.0000001 z"
     id="path6559"
     style="opacity:0.5;fill:#ffffff;fill-opacity:1;fill-rule:evenodd"
     inkscape:connector-curvature="0" />
  <path
     inkscape:export-ydpi="96"
     inkscape:export-xdpi="96"
     d="M 40.000002,17.000026 54,31.000015 54,17.000026 Z"
     id="path9844"
     style="opacity:0.2;fill:url(#linearGradient9932);fill-rule:evenodd"
     inkscape:connector-curvature="0" />
  <path
     inkscape:connector-curvature="0"
     id="rect4226-3"
     d="m 22,22 c -0.553998,0 -1,0.446 -1,1 l 0,20 c 0,0.554 0.446002,1 1,1 l 20,0 c 0.554001,0 1,-0.446 1,-1 l 0,-20 c 0,-0.554 -0.445999,-1 -1,-1 l -20,0 z m 0,1 1,0 18,0 1,0 0,1 0,18 0,1 -1,0 -18,0 -1,0 0,-1 0,-18 0,-1 z m 1,1 0,2 5,0 0,-2 -5,0 z m 6.5,0 0,2 5,0 0,-2 -5,0 z m 6.5,0 0,2 5,0 0,-2 -5,0 z m -13,4 0,2 5,0 0,-2 -5,0 z m 6.5,0 0,2 5,0 0,-2 -5,0 z m 6.5,0 0,2 5,0 0,-2 -5,0 z m -13,4 0,2 5,0 0,-2 -5,0 z m 6.5,0 0,2 5,0 0,-2 -5,0 z m 6.5,0 0,2 5,0 0,-2 -5,0 z m -13,4 0,2 5,0 0,-2 -5,0 z m 6.5,0 0,2 5,0 0,-2 -5,0 z m 6.5,0 0,2 5,0 0,-2 -5,0 z m -13,4 0,2 5,0 0,-2 -5,0 z m 6.5,0 0,2 5,0 0,-2 -5,0 z m 6.5,0 0,2 5,0 0,-2 -5,0 z"
     style="color:#000000;clip-rule:nonzero;display:inline;overflow:visible;visibility:visible;opacity:0.75;isolation:auto;mix-blend-mode:normal;color-interpolation:sRGB;color-interpolation-filters:linearRGB;solid-color:#000000;solid-opacity:1;fill:#ffffff;fill-opacity:1;fill-rule:nonzero;stroke-width:2;stroke-linecap:square;stroke-linejoin:miter;stroke-miterlimit:4;stroke-dasharray:none;stroke-dashoffset:0;stroke-opacity:1;color-rendering:auto;image-rendering:auto;shape-rendering:auto;text-rendering:auto;enable-background:accumulate" />
  <path
     inkscape:export-ydpi="96"
     inkscape:export-xdpi="96"
     inkscape:connector-curvature="0"
     style="fill:url(#linearGradient7145);fill-opacity:1"
     id="path6969"
     d="m 10.000002,61.000025 0,-57.9999991 29.999998,0 14,14.0000001 0,30 0,13.999999 -14,0 -29.999998,0 z" />
</svg>

<?xml version="1.0" encoding="UTF-8" standalone="no"?>
<svg
   xmlns:dc="http://purl.org/dc/elements/1.1/"
   xmlns:cc="http://creativecommons.org/ns#"
   xmlns:rdf="http://www.w3.org/1999/02/22-rdf-syntax-ns#"
   xmlns:svg="http://www.w3.org/2000/svg"
   xmlns="http://www.w3.org/2000/svg"
   xmlns:xlink="http://www.w3.org/1999/xlink"
   xmlns:sodipodi="http://sodipodi.sourceforge.net/DTD/sodipodi-0.dtd"
   xmlns:inkscape="http://www.inkscape.org/namespaces/inkscape"
   width="64"
   version="1.1"
   viewBox="0 0 64 64"
   height="64"
   id="svg2"
   inkscape:version="0.91 r13725"
   sodipodi:docname="application-vnd.ms-excel.addin.macroenabled.12.svg">
  <sodipodi:namedview
     pagecolor="#ffffff"
     bordercolor="#666666"
     borderopacity="1"
     objecttolerance="10"
     gridtolerance="10"
     guidetolerance="10"
     inkscape:pageopacity="0"
     inkscape:pageshadow="2"
     inkscape:window-width="1360"
     inkscape:window-height="708"
     id="namedview24"
     showgrid="true"
     inkscape:zoom="5.5949999"
     inkscape:cx="25.475857"
     inkscape:cy="32.728149"
     inkscape:window-x="0"
     inkscape:window-y="0"
     inkscape:window-maximized="1"
     inkscape:current-layer="excel"
     inkscape:object-nodes="true">
    <inkscape:grid
       type="xygrid"
       id="grid4158" />
  </sodipodi:namedview>
  <defs
     id="defs4">
    <linearGradient
       inkscape:collect="always"
       id="linearGradient4351">
      <stop
         style="stop-color:#036b53"
         id="stop4353" />
      <stop
         offset="1"
         style="stop-color:#036b53"
         id="stop4355" />
    </linearGradient>
    <linearGradient
       inkscape:collect="always"
       id="linearGradient4300">
      <stop
         style="stop-color:#26c281"
         id="stop4302" />
      <stop
         offset="1"
         style="stop-color:#3fc380"
         id="stop4304" />
    </linearGradient>
    <linearGradient
       inkscape:collect="always"
       xlink:href="#linearGradient4300"
       id="linearGradient4306-5"
       y1="61"
       y2="3"
       x2="0"
       gradientUnits="userSpaceOnUse"
       gradientTransform="matrix(1,0,0,-1,0,64)" />
    <linearGradient
       inkscape:collect="always"
       xlink:href="#linearGradient4351"
       id="linearGradient4357-8"
       y1="61"
       y2="47"
       x2="0"
       gradientUnits="userSpaceOnUse"
       gradientTransform="matrix(1,0,0,-1,0,64)" />
    <linearGradient
       inkscape:collect="always"
       xlink:href="#linearGradient4410"
       id="linearGradient4427-5"
       y1="17"
       x1="40"
       y2="31"
       x2="54"
       gradientUnits="userSpaceOnUse" />
    <linearGradient
       inkscape:collect="always"
       id="linearGradient4410">
      <stop
         style="stop-color:#383e51"
         id="stop4412" />
      <stop
         offset="1"
         style="stop-color:#655c6f;stop-opacity:0"
         id="stop4414" />
    </linearGradient>
  </defs>
  <metadata
     id="metadata84">
    <rdf:RDF>
      <cc:Work
         rdf:about="">
        <dc:format>image/svg+xml</dc:format>
        <dc:type
           rdf:resource="http://purl.org/dc/dcmitype/StillImage" />
      </cc:Work>
    </rdf:RDF>
  </metadata>
  <path
     inkscape:connector-curvature="0"
     style="fill:url(#linearGradient4306-5);fill-opacity:1.0"
     id="rect3500-9"
     d="m 10,61 0,-58 30,0 14,14 0,30 0,14 -14,0 -30,0 z" />
  <rect
     width="30"
     x="10"
     y="-4"
     height="1"
     style="fill:#ffffff;fill-opacity:0.41176471"
     id="rect4169-2"
     transform="scale(1,-1)" />
  <rect
     width="44"
     x="10"
     y="-61"
     height="1"
     style="fill:#2e3132;fill-opacity:0.29411765"
     id="rect4236-8"
     transform="scale(1,-1)" />
  <path
     inkscape:connector-curvature="0"
     style="fill:url(#linearGradient4357-8);fill-opacity:1.0;fill-rule:evenodd"
     id="path4314-9"
     d="M 54,17 40,3 40,17 Z" />
  <g
     transform="matrix(0.24991461,0,0,0.25581395,-9.2446657,22)"
     id="excel">
    <path
       style="fill:#ffffff;fill-opacity:1"
       d="M 22 22 C 21.446002 22 21 22.446 21 23 L 21 43 C 21 43.554 21.446002 44 22 44 L 42 44 C 42.554001 44 43 43.554 43 43 L 43 23 C 43 22.446 42.554001 22 42 22 L 22 22 z M 22 23 L 23 23 L 41 23 L 42 23 L 42 24 L 42 42 L 42 43 L 41 43 L 23 43 L 22 43 L 22 42 L 22 24 L 22 23 z M 23 24 L 23 26 L 28 26 L 28 24 L 23 24 z M 29.5 24 L 29.5 26 L 34.5 26 L 34.5 24 L 29.5 24 z M 36 24 L 36 26 L 41 26 L 41 24 L 36 24 z M 23 28 L 23 30 L 28 30 L 28 28 L 23 28 z M 29.5 28 L 29.5 30 L 34.5 30 L 34.5 28 L 29.5 28 z M 36 28 L 36 30 L 41 30 L 41 28 L 36 28 z M 23 32 L 23 34 L 28 34 L 28 32 L 23 32 z M 29.5 32 L 29.5 34 L 34.5 34 L 34.5 32 L 29.5 32 z M 36 32 L 36 34 L 41 34 L 41 32 L 36 32 z M 23 36 L 23 38 L 28 38 L 28 36 L 23 36 z M 29.5 36 L 29.5 38 L 34.5 38 L 34.5 36 L 29.5 36 z M 36 36 L 36 38 L 41 38 L 41 36 L 36 36 z M 23 40 L 23 42 L 28 42 L 28 40 L 23 40 z M 29.5 40 L 29.5 42 L 34.5 42 L 34.5 40 L 29.5 40 z M 36 40 L 36 42 L 41 42 L 41 40 L 36 40 z "
       transform="matrix(4.0013667,0,0,3.909091,36.991298,-86.000001)"
       id="rect4226-3" />
  </g>
  <path
     inkscape:connector-curvature="0"
     style="opacity:0.2;fill:url(#linearGradient4427-5);fill-rule:evenodd"
     id="path4320-7"
     d="M 40,17 54,31 54,17 Z" />
</svg>
